svg/u1f63d.svg

<svg viewBox="0 0 128 128" xmlns="http://www.w3.org/2000/svg">
  <defs>
    <radialGradient id="SVGID_1_" cx="40.729168" cy="97.366634" gradientTransform="matrix(0.9791 0 0 0.9333 0 0)" gradientUnits="userSpaceOnUse" r="16.9843">
      <stop offset="0" stop-color="#ED7770"/>
      <stop offset="1" stop-color="#ED7770" stop-opacity="0"/>
    </radialGradient>
    <radialGradient id="SVGID_2_" cx="91.027568" cy="97.366634" gradientTransform="matrix(0.9791 0 0 0.9333 0 0)" gradientUnits="userSpaceOnUse" r="16.9843">
      <stop offset="0" stop-color="#ED7770"/>
      <stop offset="1" stop-color="#ED7770" stop-opacity="0"/>
    </radialGradient>
  </defs>
  <path d="M110.47,59.02 C119.98,34.19 114.12,15.19 110.76,9.74 C109.43,7.58 106.87,6.98 104.51,7.72 C98.29,9.68 81.5,23.4 74.08,42.6" fill="#FFC022"/>
  <path d="M17.53,59.02 C8.02,34.19 13.88,15.19 17.24,9.74 C18.57,7.58 21.13,6.98 23.49,7.72 C29.71,9.68 46.5,23.4 53.92,42.6" fill="#FFC022"/>
  <path d="M114.11,70.76 C112.31,44.78 94.44,26.3 64,26.3 C33.56,26.3 15.69,44.78 13.89,70.76 C12.84,85.9 18.94,98.77 30.98,106.97 C30.98,106.97 43.19,116.85 64,117.11 C84.81,116.85 97.02,106.97 97.02,106.97 C109.05,98.77 115.16,85.9 114.11,70.76 Z" fill="#FFC022"/>
  <path d="M54.12,45.02 C55.25,45.98 57.54,45.84 58.87,44.3 C60.48,42.43 62.16,36.13 61.11,26.39 C56.44,26.56 52.02,27.23 47.9,28.36 C51.23,33.82 52.03,43.24 54.12,45.02 Z" fill="#FF7043" opacity="0.47"/>
  <path d="M73.88,45.02 C72.75,45.98 70.46,45.84 69.13,44.3 C67.52,42.43 65.84,36.13 66.89,26.39 C71.56,26.56 75.98,27.23 80.1,28.36 C76.77,33.82 75.97,43.24 73.88,45.02 Z" fill="#FF7043" opacity="0.47"/>
  <path d="M123.073,65.976 L106.153,74.306 Q104.807,74.968 104.144,73.623 Q103.482,72.277 104.827,71.614 L121.747,63.284 Q122.42,62.953 122.922,63.124 Q123.424,63.295 123.756,63.967 Q124.418,65.313 123.073,65.976 Z" fill="#9E9E9E"/>
  <path d="M124.767,78.308 L106.617,81.468 Q105.14,81.725 104.882,80.247 Q104.625,78.77 106.103,78.512 L124.253,75.352 Q125.73,75.095 125.988,76.573 Q126.245,78.05 124.767,78.308 Z" fill="#9E9E9E"/>
  <path d="M121.925,94.389 L105.005,88.609 Q103.586,88.125 104.071,86.705 Q104.555,85.286 105.975,85.771 L122.895,91.551 Q124.314,92.035 123.829,93.455 Q123.345,94.874 121.925,94.389 Z" fill="#9E9E9E"/>
  <path d="M6.253,63.284 L23.173,71.614 Q23.845,71.946 24.016,72.448 Q24.187,72.95 23.856,73.623 Q23.193,74.968 21.847,74.306 L4.927,65.976 Q4.255,65.644 4.084,65.142 Q3.913,64.64 4.244,63.967 Q4.576,63.295 5.078,63.124 Q5.58,62.953 6.253,63.284 Z" fill="#9E9E9E"/>
  <path d="M3.747,75.352 L21.897,78.512 Q22.636,78.641 22.941,79.075 Q23.246,79.508 23.118,80.247 Q22.86,81.725 21.383,81.468 L3.233,78.308 Q2.494,78.179 2.189,77.745 Q1.884,77.312 2.012,76.573 Q2.27,75.095 3.747,75.352 Z" fill="#9E9E9E"/>
  <path d="M5.105,91.551 L22.025,85.771 Q22.735,85.528 23.211,85.762 Q23.687,85.995 23.929,86.705 Q24.414,88.125 22.995,88.609 L6.075,94.389 Q5.365,94.632 4.889,94.398 Q4.413,94.165 4.171,93.455 Q3.686,92.035 5.105,91.551 Z" fill="#9E9E9E"/>
  <path d="M32.56,70.26 C32.26,70.26 31.96,70.2 31.67,70.07 C30.55,69.58 30.03,68.27 30.53,67.15 C30.88,66.35 34.13,59.3 39.88,59.3 C45.56,59.3 49.05,66.04 49.43,66.81 C49.97,67.91 49.52,69.24 48.42,69.78 C47.32,70.32 46.25,69.66 45.45,68.77 C44.48,67.69 42.37,65.27 39.88,65.27 C37.38,65.27 35.3,67.86 34.6,68.92 C34.09,69.69 33.41,70.26 32.56,70.26 Z"/>
  <path d="M95.44,70.26 C95.74,70.26 96.04,70.2 96.33,70.07 C97.45,69.58 97.97,68.27 97.47,67.15 C97.12,66.35 93.87,59.3 88.12,59.3 C82.44,59.3 78.95,66.04 78.57,66.81 C78.03,67.91 78.48,69.24 79.58,69.78 C80.68,70.32 81.75,69.66 82.55,68.77 C83.52,67.69 85.63,65.27 88.12,65.27 C90.62,65.27 92.7,67.86 93.4,68.92 C93.91,69.69 94.59,70.26 95.44,70.26 Z"/>
  <path d="M55.96,76.98 C55.91,74.12 60.02,72.74 63.91,72.68 C67.8,72.61 71.98,73.88 72.03,76.74 C72.08,79.6 67.17,83.38 64.08,83.38 C60.99,83.38 56.01,79.84 55.96,76.98 Z"/>
  <path d="M63.33,105.03 C62.23,104.89 61.46,103.89 61.6,102.79 C61.74,101.7 62.73,101.06 63.84,101.06 C68.52,101.06 69.54,100.04 69.58,99.04 C69.63,97.7 68.08,96.8 65.7,96.13 C64.55,95.81 63.74,95.14 63.79,93.94 C63.83,92.77 64.7,92.24 65.84,92.01 C66.82,91.81 67.78,91.45 68.64,91.21 C70.3,90.75 71.31,88.31 68.21,86.43 C65.8,84.97 62.14,83.29 59.3,81.5 C60.17,81.66 65.81,81.1 66.97,81.82 C68.32,82.67 70.85,84.2 72.24,84.99 C73.67,85.81 74.59,87.39 74.59,89.03 C74.59,92.87 70.67,94.32 70.67,94.32 C73,95.81 73.59,97.6 73.59,99.03 C73.59,100.73 73.07,102.35 71.74,103.26 C68.47,105.5 63.85,105.1 63.33,105.03 Z"/>
  <path d="M55.17,90.87 A15.29 15.29 0 1 1 24.59,90.87 A15.29 15.29 0 1 1 55.17,90.87 Z" fill="url(#SVGID_1_)"/>
  <path d="M104.41,90.87 A15.29 15.29 0 1 1 73.83,90.87 A15.29 15.29 0 1 1 104.41,90.87 Z" fill="url(#SVGID_2_)"/>
  <path d="M92.16,36.23 C90.62,34.94 90.66,32.86 91.56,31.07 C93.72,26.76 98.89,22.29 100.72,20.84 C103.72,18.46 106.04,17.66 106.93,21.49 C108.58,28.57 108.45,38.18 106.68,43.48 C106.06,45.35 104.14,46.34 102.66,45.05 L92.16,36.23 Z" fill="#FFD1D1"/>
  <path d="M35.84,36.23 C37.38,34.94 37.34,32.86 36.44,31.07 C34.28,26.76 29.11,22.29 27.28,20.84 C24.28,18.46 21.96,17.66 21.07,21.49 C19.42,28.57 19.55,38.18 21.32,43.48 C21.94,45.35 23.86,46.34 25.34,45.05 L35.84,36.23 Z" fill="#FFD1D1"/>
</svg>

<svg viewBox="0 0 128 128" xmlns="http://www.w3.org/2000/svg">
  <g>
    <path d="M110.47,59.02c9.51-24.83,3.65-43.83,0.29-49.28c-1.33-2.16-3.89-2.76-6.25-2.02 C98.29,9.68,81.5,23.4,74.08,42.6" fill="#FFC022"/>
    <path d="M17.53,59.02c-9.51-24.83-3.65-43.83-0.29-49.28c1.33-2.16,3.89-2.76,6.25-2.02 C29.71,9.68,46.5,23.4,53.92,42.6" fill="#FFC022"/>
    <path d="M114.11,70.76C112.31,44.78,94.44,26.3,64,26.3S15.69,44.78,13.89,70.76 c-1.05,15.14,5.05,28.01,17.09,36.21c0,0,12.21,9.88,33.02,10.14c20.81-0.26,33.02-10.14,33.02-10.14 C109.05,98.77,115.16,85.9,114.11,70.76z" fill="#FFC022"/>
    <path d="M54.12,45.02c1.13,0.96,3.42,0.82,4.75-0.72c1.61-1.87,3.29-8.17,2.24-17.91 c-4.67,0.17-9.09,0.84-13.21,1.97C51.23,33.82,52.03,43.24,54.12,45.02z" fill="#FF7043" opacity="0.47"/>
    <path d="M73.88,45.02c-1.13,0.96-3.42,0.82-4.75-0.72c-1.61-1.87-3.29-8.17-2.24-17.91 c4.67,0.17,9.09,0.84,13.21,1.97C76.77,33.82,75.97,43.24,73.88,45.02z" fill="#FF7043" opacity="0.47"/>
    <g>
      <g>
        <line fill="none" stroke="#9E9E9E" stroke-linecap="round" stroke-miterlimit="10" stroke-width="3" x1="122.41" x2="105.49" y1="64.63" y2="72.96"/>
        <line fill="none" stroke="#9E9E9E" stroke-linecap="round" stroke-miterlimit="10" stroke-width="3" x1="124.51" x2="106.36" y1="76.83" y2="79.99"/>
        <line fill="none" stroke="#9E9E9E" stroke-linecap="round" stroke-miterlimit="10" stroke-width="3" x1="122.41" x2="105.49" y1="92.97" y2="87.19"/>
      </g>
      <g>
        <line fill="none" stroke="#9E9E9E" stroke-linecap="round" stroke-miterlimit="10" stroke-width="3" x1="5.59" x2="22.51" y1="64.63" y2="72.96"/>
        <line fill="none" stroke="#9E9E9E" stroke-linecap="round" stroke-miterlimit="10" stroke-width="3" x1="3.49" x2="21.64" y1="76.83" y2="79.99"/>
        <line fill="none" stroke="#9E9E9E" stroke-linecap="round" stroke-miterlimit="10" stroke-width="3" x1="5.59" x2="22.51" y1="92.97" y2="87.19"/>
      </g>
    </g>
    <g>
      <path d="M32.56,70.26c-0.3,0-0.6-0.06-0.89-0.19c-1.12-0.49-1.64-1.8-1.14-2.92c0.35-0.8,3.6-7.85,9.35-7.85 c5.68,0,9.17,6.74,9.55,7.51c0.54,1.1,0.09,2.43-1.01,2.97c-1.1,0.54-2.17-0.12-2.97-1.01c-0.97-1.08-3.08-3.5-5.57-3.5 c-2.5,0-4.58,2.59-5.28,3.65C34.09,69.69,33.41,70.26,32.56,70.26z"/>
      <path d="M95.44,70.26c0.3,0,0.6-0.06,0.89-0.19c1.12-0.49,1.64-1.8,1.14-2.92c-0.35-0.8-3.6-7.85-9.35-7.85 c-5.68,0-9.17,6.74-9.55,7.51c-0.54,1.1-0.09,2.43,1.01,2.97c1.1,0.54,2.17-0.12,2.97-1.01c0.97-1.08,3.08-3.5,5.57-3.5 c2.5,0,4.58,2.59,5.28,3.65C93.91,69.69,94.59,70.26,95.44,70.26z"/>
    </g>
    <path d="M55.96,76.98c-0.05-2.86,4.06-4.24,7.95-4.3c3.89-0.07,8.07,1.2,8.12,4.06s-4.86,6.64-7.95,6.64S56.01,79.84,55.96,76.98z"/>
    <path d="M63.33,105.03c-1.1-0.14-1.87-1.14-1.73-2.24c0.14-1.09,1.13-1.73,2.24-1.73c4.68,0,5.7-1.02,5.74-2.02 c0.05-1.34-1.5-2.24-3.88-2.91c-1.15-0.32-1.96-0.99-1.91-2.19c0.04-1.17,0.91-1.7,2.05-1.93c0.98-0.2,1.94-0.56,2.8-0.8 c1.66-0.46,2.67-2.9-0.43-4.78c-2.41-1.46-6.07-3.14-8.91-4.93c0.87,0.16,6.51-0.4,7.67,0.32c1.35,0.85,3.88,2.38,5.27,3.17 c1.43,0.82,2.35,2.4,2.35,4.04c0,3.84-3.92,5.29-3.92,5.29c2.33,1.49,2.92,3.28,2.92,4.71c0,1.7-0.52,3.32-1.85,4.23 C68.47,105.5,63.85,105.1,63.33,105.03z"/>
    <g>
      <radialGradient id="SVGID_1_" cx="40.1326" cy="82.2192" gradientTransform="matrix(0.9791 0 0 0.9333 0.5841 14.1371)" gradientUnits="userSpaceOnUse" r="16.9843">
        <stop offset="0" stop-color="#ED7770"/>
        <stop offset="1" stop-color="#ED7770" stop-opacity="0"/>
      </radialGradient>
      <circle cx="39.88" cy="90.87" fill="url(#SVGID_1_)" r="15.29"/>
      <radialGradient id="SVGID_2_" cx="90.431" cy="82.2192" gradientTransform="matrix(0.9791 0 0 0.9333 0.5841 14.1371)" gradientUnits="userSpaceOnUse" r="16.9843">
        <stop offset="0" stop-color="#ED7770"/>
        <stop offset="1" stop-color="#ED7770" stop-opacity="0"/>
      </radialGradient>
      <circle cx="89.12" cy="90.87" fill="url(#SVGID_2_)" r="15.29"/>
    </g>
    <path d="M92.16,36.23c-1.54-1.29-1.5-3.37-0.6-5.16c2.16-4.31,7.33-8.78,9.16-10.23 c3-2.38,5.32-3.18,6.21,0.65c1.65,7.08,1.52,16.69-0.25,21.99c-0.62,1.87-2.54,2.86-4.02,1.57L92.16,36.23z" fill="#FFD1D1"/>
    <path d="M35.84,36.23c1.54-1.29,1.5-3.37,0.6-5.16c-2.16-4.31-7.33-8.78-9.16-10.23 c-3-2.38-5.32-3.18-6.21,0.65c-1.65,7.08-1.52,16.69,0.25,21.99c0.62,1.87,2.54,2.86,4.02,1.57L35.84,36.23z" fill="#FFD1D1"/>
  </g>
</svg>
